packages/kaspersky-hexa-ui-icons/src/iconsSVGs/16/Color.svg

<svg width="12" height="12" viewBox="0 0 12 12" fill="none" xmlns="http://www.w3.org/2000/svg">
<path d="M6.01416 0.0439453H2.79414C1.66196 0.0439453 0.744141 0.961762 0.744141 2.09395V11.906C0.744141 13.0382 1.66196 13.956 2.79414 13.956H9.0059C10.2485 13.956 11.2559 12.9486 11.2559 11.706V5.53734L11.2523 5.53735H8.06416C6.93198 5.53735 6.01416 4.61953 6.01416 3.48735L6.01416 0.0439453Z" fill="black"/>
<path d="M10.8731 4.23735L7.31416 0.420105L7.31416 3.48735C7.31416 3.90157 7.64995 4.23735 8.06416 4.23735H10.8731Z" fill="black"/>
</svg>

<svg xmlns="http://www.w3.org/2000/svg" width="12" height="12" fill="none" viewBox="0 0 12 12"><path fill="#000" d="M6.0142.044h-3.22c-1.1322 0-2.05.9178-2.05 2.05v9.812c0 1.1322.9178 2.05 2.05 2.05h6.2117c1.2426 0 2.25-1.0074 2.25-2.25V5.5373H8.0642c-1.1322 0-2.05-.9178-2.05-2.05z"/><path fill="#000" d="M10.8731 4.2374 7.3141.42v3.0673a.75.75 0 0 0 .75.75z"/></svg>
